svgs/thin/laptop-mobile.svg

<svg xmlns="http://www.w3.org/2000/svg" viewBox="0 0 640 512"><!-- Font Awesome Pro 6.0.0-alpha2 by @fontawesome - https://fontawesome.com License - https://fontawesome.com/license (Commercial License) --><path d="M344 304C348.418 304 352 300.418 352 296S348.418 288 344 288H80V48C80 30.326 94.328 16 112 16H464C481.674 16 496 30.326 496 48V88C496 92.418 499.582 96 504 96S512 92.418 512 88V48C512 21.5 490.5 0.125 464.125 0H111.875C85.5 0.125 64 21.5 64 48V288H16C7.164 288 0 295.164 0 304V320C0.125 355.25 28.625 383.875 63.875 384H344C348.418 384 352 380.418 352 376S348.418 368 344 368H63.932C37.596 367.906 16.094 346.348 16 320V304H344ZM604 128H420C400.125 128 384 144.125 384 164V476C384 495.875 400.125 512 420 512H604C623.875 512 640 495.875 640 476V164C640 144.125 623.875 128 604 128ZM624 476C624 487.027 615.029 496 604 496H420C408.973 496 400 487.027 400 476V164C400 152.973 408.973 144 420 144H604C615.029 144 624 152.973 624 164V476Z"/></svg>

<svg xmlns="http://www.w3.org/2000/svg" viewBox="0 0 640 512"><!--! Font Awesome Pro 6.3.0 by @fontawesome - https://fontawesome.com License - https://fontawesome.com/license (Commercial License) Copyright 2023 Fonticons, Inc. --><path d="M344 304C348.4 304 352 300.4 352 296S348.4 288 344 288H80V48c0-17.67 14.33-32 32-32h352c17.67 0 32 14.33 32 32v40C496 92.42 499.6 96 504 96S512 92.42 512 88V48c0-26.5-21.5-47.88-47.88-48H111.9C85.5 .125 64 21.5 64 48V288H16C7.164 288 0 295.2 0 304V320c.125 35.25 28.63 63.88 63.88 64H344c4.418 0 8-3.582 8-8s-3.582-8-8-8H63.93C37.6 367.9 16.09 346.3 16 320V304H344zM604 127.1h-184C400.1 127.1 384 144.1 384 164v312C384 495.9 400.1 512 420 512h184C623.9 512 640 495.9 640 476v-312C640 144.1 623.9 127.1 604 127.1zM624 476c0 11.03-8.971 20-20 20h-184c-11.03 0-20-8.973-20-20v-312c0-11.03 8.973-20 20-20h184c11.03 0 20 8.973 20 20V476z"/></svg>
